tests/fixtures/ingest-assets/canon-r6/frame-001.xmp
<x:xmpmeta>
  <rdf:RDF>
    <rdf:Description crs:Exposure2012="+0.35" crs:Contrast2012="+8" />
  </rdf:RDF>
</x:xmpmeta>
